logos/sysdig-icon.svg

<?xml version="1.0" encoding="UTF-8"?>
<svg width="256px" height="317px" viewBox="0 0 256 317" version="1.1" xmlns="http://www.w3.org/2000/svg" xmlns:xlink="http://www.w3.org/1999/xlink" preserveAspectRatio="xMidYMid">
    <g>
        <path d="M198.813842,98.6548438 C202.530279,98.664399 205.956229,100.666026 207.789411,103.898894 L243.375433,165.534202 C268.742264,209.470518 254.837747,270.329926 211.033939,307.096264 C210.108407,307.873529 209.053671,308.482365 207.917706,308.895078 C193.830178,314.032191 178.952969,316.666738 163.958029,316.679724 C124.504769,316.679724 87.6802191,298.217854 69.1513297,266.124142 L26.8016617,192.77376 C25.4292962,190.397031 25.0573167,187.572467 25.7675579,184.92147 C26.4777992,182.270472 28.2120792,180.010207 30.5888591,178.637928 L59.4349796,161.983297 C62.6382592,160.110751 66.5988977,160.096456 69.8156107,161.945831 C73.0323236,163.795206 75.0127576,167.225183 75.0062269,170.935626 C74.9996962,174.646069 73.0072005,178.069053 69.7839974,179.907093 L49.8997747,191.38664 L87.0747424,255.775124 C107.227045,290.679842 155.140511,305.234644 199.117805,290.056748 C234.248858,259.562322 245.602791,210.787937 225.45202,175.88322 L189.865998,114.247912 C187.982593,111.044042 187.9618,107.076271 189.811522,103.852837 C191.661244,100.629404 195.097405,98.6453569 198.813842,98.6548438 Z M90.0737861,195.244687 C90.1943759,195.461357 96.7348148,207.111431 102.96874,218.139362 L103.552067,219.171039 C106.850173,225.002716 110.002449,230.552481 112.000392,234.012813 C126.574342,259.256711 153.265487,268.899914 183.401452,259.790572 C188.872976,258.138054 194.648153,261.233969 196.300672,266.705492 C197.953191,272.177015 194.857276,277.952192 189.385753,279.604711 C180.419747,282.368838 171.096089,283.799852 161.713821,283.851857 C133.611608,284.164638 107.61712,268.988149 94.0754471,244.361831 C92.0506809,240.855014 88.9393614,235.379624 85.6840172,229.625145 L85.1082415,228.607095 L85.1082415,228.607095 L84.5306267,227.585315 L84.5306267,227.585315 L83.9523239,226.561867 C83.7595695,226.220669 83.5668923,225.879536 83.3744841,225.538814 L82.7982585,224.51822 C77.4312664,215.010572 72.4255915,206.093819 71.9925895,205.316817 C69.2112479,200.323833 71.0041386,194.021496 75.997123,191.240154 C80.9901074,188.458812 87.2924441,190.251703 90.0737861,195.244687 Z M19.2716914,5.10585289 L141.537008,216.876022 C144.871917,222.650072 154.32555,232.558673 166.219471,228.720541 C171.659585,226.967344 177.490916,229.956181 179.244114,235.396295 C180.997311,240.836409 178.008474,246.66774 172.56836,248.420938 C168.784024,249.654378 164.829719,250.286937 160.849456,250.295579 C144.504265,250.295579 130.649534,239.412317 123.613213,227.225423 L1.34827881,15.4548706 C-1.45536393,10.5105662 0.253414433,4.23044182 5.17569332,1.3883072 C10.0979722,-1.45382742 16.3912379,0.205899175 19.2716914,5.10585289 Z M109.027773,66.0675149 L138.162653,116.531184 L156.693075,105.831748 C161.63824,103.019055 167.926512,104.725577 170.771334,109.652329 C173.616157,114.579081 171.950605,120.878328 167.042475,123.75516 L139.548624,139.629297 C138.080196,140.477132 136.427668,140.950677 134.736789,141.010048 L134.373,141.016 L134.048852,141.011316 C130.47759,140.899309 127.206615,138.949498 125.412026,135.842099 L91.1043603,76.4165326 C88.3007175,71.4722282 90.0094959,65.1921038 94.9317748,62.3499692 C99.8540537,59.5078346 106.147319,61.1675612 109.027773,66.0675149 Z" fill="#00ABC7"></path>
    </g>
</svg>

<svg preserveAspectRatio="xMidYMid" viewBox="0 0 256 317" xmlns="http://www.w3.org/2000/svg">
  <path fill="#00ABC7" d="M198.814 98.655a10.349 10.349 0 0 1 8.975 5.244l35.586 61.635c25.367 43.937 11.463 104.796-32.341 141.562a10.331 10.331 0 0 1-3.116 1.8 128.641 128.641 0 0 1-43.96 7.784c-39.453 0-76.278-18.462-94.807-50.556l-42.35-73.35a10.348 10.348 0 0 1 3.788-14.136l28.846-16.655a10.349 10.349 0 1 1 10.349 17.924L49.9 191.387l37.175 64.388c20.152 34.905 68.066 49.46 112.043 34.282 35.13-30.495 46.485-79.27 26.334-114.174l-35.586-61.635a10.349 10.349 0 0 1 8.948-15.593Zm-108.74 96.59c.12.216 6.66 11.866 12.895 22.894l.583 1.032c3.298 5.832 6.45 11.381 8.448 14.842 14.574 25.244 41.265 34.887 71.401 25.778 5.472-1.653 11.247 1.443 12.9 6.914 1.652 5.472-1.444 11.247-6.915 12.9a95.73 95.73 0 0 1-27.672 4.247 76.222 76.222 0 0 1-67.639-39.49 2209.073 2209.073 0 0 1-8.391-14.737l-.576-1.018-.577-1.022-.579-1.023-.578-1.023-.576-1.02a7893.27 7893.27 0 0 1-10.805-19.202c-2.782-4.993-.989-11.296 4.004-14.077 4.993-2.781 11.295-.988 14.077 4.005ZM19.272 5.105l122.265 211.771c3.335 5.774 12.789 15.683 24.682 11.845 5.44-1.754 11.272 1.235 13.025 6.675 1.753 5.44-1.236 11.272-6.676 13.025a38.083 38.083 0 0 1-11.719 1.875c-16.345 0-30.2-10.884-37.236-23.07L1.348 15.454C-1.455 10.51.253 4.23 5.176 1.388 10.098-1.454 16.39.206 19.272 5.106Zm89.756 60.963 29.135 50.463 18.53-10.7c4.945-2.812 11.234-1.105 14.078 3.821 2.845 4.927 1.18 11.226-3.729 14.103L139.55 139.63a10.35 10.35 0 0 1-4.812 1.381l-.364.006-.324-.005a10.35 10.35 0 0 1-8.637-5.169L91.104 76.417c-2.803-4.945-1.095-11.225 3.828-14.067 4.922-2.842 11.215-1.182 14.096 3.718Z"/>
</svg>
